X: 10403
T: SCOTCH DANCE. Hither O you!
C:
%R: reel
B: Elias Howe "The Musician's Companion" Part 1 1842 p.40 #3
S: http://imslp.org/wiki/The_Musician's_Companion_(Howe,_Elias)
Z: 2015 John Chambers <jc:trillian.mit.edu>
N: The rhythms aren't right a strain boundaries; not fixed.
N: Extra bar line in the middle of bar 7 dropped.
M: 2/4
L: 1/16
K: Dm
% - - - - - - - - - - - - - - - - - - - - - - - - -
|:\
Ddd^c d2f2 | AFcF AFcF | Ddd^c d^cdf | fdcA GGG2 :: d2 | fdgb dgbg | fcfa cfaf |
gdgb dgbg | fdcA GGG2 | gdgb dgbg | fcfa cfaf | gdde fgag | fecA GGG2 :|
% - - - - - - - - - - - - - - - - - - - - - - - - -


